images/bg4.svg

<svg width="786" height="607" fill="none" xmlns="http://www.w3.org/2000/svg"><g class="e1" stroke="#4C29A0" stroke-width="2.056"><path d="M217.915 575.281H13.706"/><circle r="6.853" transform="matrix(-1 0 0 1 7.88 575.966)"/></g><g class="e2" stroke="#4C29A0" stroke-width="2.056"><path d="M283.7 525.256H79.491"/><circle r="6.853" transform="matrix(-1 0 0 1 72.98 525.942)"/></g><g class="e3" stroke="#4C29A0" stroke-width="2.056"><path d="M389.057 203.578h92.685l173.199 156.24"/><circle r="6.853" transform="matrix(-1 0 0 1 382.036 203.625)"/></g><g class="e4" stroke="#4C29A0" stroke-width="2.056"><path d="M704.796 196.671V59.618"/><circle r="6.853" transform="matrix(-1 0 0 1 704.796 52.423)"/></g><g class="e5" stroke="#4C29A0" stroke-width="2.056"><path d="M754.82 152.814V15.076"/><circle r="6.853" transform="matrix(-1 0 0 1 754.82 7.88)"/></g><g class="e8"><rect x="-.685" y=".685" width="134.997" height="134.997" rx="18.502" transform="matrix(-1 0 0 1 693.489 378.952)" fill="#4C29A0" stroke="#9C6EFF" stroke-width="1.371"/><rect width="92.511" height="92.511" rx="11.649" transform="matrix(-1 0 0 1 672.931 400.881)" fill="#270970"/><path d="M659.226 391.287a2.056 2.056 0 00-2.056-2.056h-3.426c-1.136 0-2.056.92-2.056 2.056v9.593h7.538v-9.593zM644.835 391.287c0-1.136-.92-2.056-2.056-2.056h-3.426c-1.135 0-2.056.92-2.056 2.056v9.593h7.538v-9.593zM630.445 391.287a2.056 2.056 0 00-2.056-2.056h-3.427c-1.135 0-2.055.92-2.055 2.056v9.593h7.538v-9.593zM616.054 391.287c0-1.136-.92-2.056-2.056-2.056h-3.426c-1.135 0-2.056.92-2.056 2.056v9.593h7.538v-9.593zM601.663 391.287c0-1.136-.92-2.056-2.055-2.056h-3.427c-1.135 0-2.055.92-2.055 2.056v9.593h7.537v-9.593zM570.827 414.586c-1.136 0-2.056.92-2.056 2.056v3.426c0 1.135.92 2.056 2.056 2.056h9.593v-7.538h-9.593zM570.827 428.977c-1.136 0-2.056.92-2.056 2.055v3.427c0 1.135.92 2.055 2.056 2.055h9.593v-7.537h-9.593zM570.827 443.367a2.056 2.056 0 00-2.056 2.056v3.426c0 1.136.92 2.056 2.056 2.056h9.593v-7.538h-9.593zM570.827 457.758c-1.136 0-2.056.92-2.056 2.056v3.426c0 1.135.92 2.056 2.056 2.056h9.593v-7.538h-9.593zM570.827 472.148a2.056 2.056 0 00-2.056 2.056v3.427c0 1.135.92 2.055 2.056 2.055h9.593v-7.538h-9.593zM682.525 411.16c1.135 0 2.056.92 2.056 2.055v3.427a2.057 2.057 0 01-2.056 2.056h-9.594v-7.538h9.594zM682.525 425.55c1.135 0 2.056.921 2.056 2.056v3.426a2.056 2.056 0 01-2.056 2.056h-9.594v-7.538h9.594zM682.525 439.941c1.135 0 2.056.92 2.056 2.056v3.426a2.057 2.057 0 01-2.056 2.056h-9.594v-7.538h9.594zM682.525 454.332c1.135 0 2.056.92 2.056 2.055v3.427a2.056 2.056 0 01-2.056 2.055h-9.594v-7.537h9.594zM682.525 468.722c1.135 0 2.056.921 2.056 2.056v3.426a2.056 2.056 0 01-2.056 2.056h-9.594v-7.538h9.594zM594.125 502.984c0 1.136.921 2.056 2.056 2.056h3.427c1.135 0 2.055-.92 2.055-2.056v-9.593h-7.538v9.593zM608.516 502.985c0 1.136.921 2.056 2.056 2.056h3.426c1.136 0 2.056-.92 2.056-2.056v-9.594h-7.538v9.594zM622.907 502.985c0 1.136.92 2.056 2.055 2.056h3.427c1.135 0 2.056-.92 2.056-2.056v-9.594h-7.538v9.594zM637.297 502.985c0 1.136.921 2.056 2.056 2.056h3.426c1.136 0 2.056-.92 2.056-2.056v-9.594h-7.538v9.594zM651.688 502.985c0 1.136.92 2.056 2.056 2.056h3.426c1.135 0 2.056-.92 2.056-2.056v-9.594h-7.538v9.594z" fill="#270970"/></g><path d="M655.499 384.059V239.798l99.635-87.814M562.228 475.989l-214.456-.001-130.543 99.636" stroke="#4C29A0" stroke-width="2.056"/></svg>

<svg width="786" height="607" viewBox="0 0 786 607" fill="none" xmlns="http://www.w3.org/2000/svg">
<g class="e1">
  <line y1="-1.0279" x2="204.209" y2="-1.0279" transform="matrix(-1 0 0 1 217.915 576.309)" stroke="#4C29A0" stroke-width="2.0558"/>
  <circle r="6.85266" transform="matrix(-1 0 0 1 7.88055 575.966)" stroke="#4C29A0" stroke-width="2.0558"/>
</g>
<g class="e2">
  <line y1="-1.0279" x2="204.209" y2="-1.0279" transform="matrix(-1 0 0 1 283.7 526.284)" stroke="#4C29A0" stroke-width="2.0558"/>
  <circle r="6.85266" transform="matrix(-1 0 0 1 72.9808 525.942)" stroke="#4C29A0" stroke-width="2.0558"/>
</g>
<g class="e3">
  <path d="M389.057 203.578L481.742 203.578L654.941 359.818" stroke="#4C29A0" stroke-width="2.0558"/>
  <circle r="6.85266" transform="matrix(-1 0 0 1 382.036 203.625)" stroke="#4C29A0" stroke-width="2.0558"/>
</g>
<g class="e4">
  <line x1="704.796" y1="196.671" x2="704.796" y2="59.6182" stroke="#4C29A0" stroke-width="2.0558"/>
  <circle r="6.85266" transform="matrix(-1 0 0 1 704.796 52.4228)" stroke="#4C29A0" stroke-width="2.0558"/>
</g>
<g class="e5">
  <line x1="754.82" y1="152.814" x2="754.82" y2="15.0758" stroke="#4C29A0" stroke-width="2.0558"/>
  <circle r="6.85266" transform="matrix(-1 0 0 1 754.82 7.88056)" stroke="#4C29A0" stroke-width="2.0558"/>
</g>
<g class="e8">
  <rect x="-0.685266" y="0.685266" width="134.997" height="134.997" rx="18.5022" transform="matrix(-1 0 0 1 693.489 378.952)" fill="#4C29A0" stroke="#9C6EFF" stroke-width="1.37053"/>
  <rect width="92.5109" height="92.5109" rx="11.6495" transform="matrix(-1 0 0 1 672.931 400.881)" fill="#270970"/>
  <path d="M659.226 391.287C659.226 390.151 658.305 389.231 657.17 389.231H653.744C652.608 389.231 651.688 390.151 651.688 391.287V400.88H659.226V391.287Z" fill="#270970"/>
  <path d="M644.835 391.287C644.835 390.151 643.915 389.231 642.779 389.231H639.353C638.218 389.231 637.297 390.151 637.297 391.287V400.88H644.835V391.287Z" fill="#270970"/>
  <path d="M630.445 391.287C630.445 390.151 629.524 389.231 628.389 389.231H624.962C623.827 389.231 622.907 390.151 622.907 391.287V400.88H630.445V391.287Z" fill="#270970"/>
  <path d="M616.054 391.287C616.054 390.151 615.134 389.231 613.998 389.231H610.572C609.437 389.231 608.516 390.151 608.516 391.287V400.88H616.054V391.287Z" fill="#270970"/>
  <path d="M601.663 391.287C601.663 390.151 600.743 389.231 599.608 389.231H596.181C595.046 389.231 594.126 390.151 594.126 391.287V400.88H601.663V391.287Z" fill="#270970"/>
  <path d="M570.827 414.586C569.691 414.586 568.771 415.506 568.771 416.642V420.068C568.771 421.203 569.691 422.124 570.827 422.124H580.42V414.586H570.827Z" fill="#270970"/>
  <path d="M570.827 428.977C569.691 428.977 568.771 429.897 568.771 431.032V434.459C568.771 435.594 569.691 436.514 570.827 436.514H580.42V428.977H570.827Z" fill="#270970"/>
  <path d="M570.827 443.367C569.691 443.367 568.771 444.288 568.771 445.423V448.849C568.771 449.985 569.691 450.905 570.827 450.905H580.42V443.367H570.827Z" fill="#270970"/>
  <path d="M570.827 457.758C569.691 457.758 568.771 458.678 568.771 459.814V463.24C568.771 464.375 569.691 465.296 570.827 465.296H580.42V457.758H570.827Z" fill="#270970"/>
  <path d="M570.827 472.148C569.691 472.148 568.771 473.069 568.771 474.204V477.631C568.771 478.766 569.691 479.686 570.827 479.686H580.42V472.148H570.827Z" fill="#270970"/>
  <path d="M682.525 411.16C683.66 411.16 684.581 412.08 684.581 413.215V416.642C684.581 417.777 683.66 418.698 682.525 418.698H672.931V411.16H682.525Z" fill="#270970"/>
  <path d="M682.525 425.55C683.66 425.55 684.581 426.471 684.581 427.606V431.032C684.581 432.168 683.66 433.088 682.525 433.088H672.931V425.55H682.525Z" fill="#270970"/>
  <path d="M682.525 439.941C683.66 439.941 684.581 440.861 684.581 441.997V445.423C684.581 446.558 683.66 447.479 682.525 447.479H672.931V439.941H682.525Z" fill="#270970"/>
  <path d="M682.525 454.332C683.66 454.332 684.581 455.252 684.581 456.387V459.814C684.581 460.949 683.66 461.869 682.525 461.869H672.931V454.332H682.525Z" fill="#270970"/>
  <path d="M682.525 468.722C683.66 468.722 684.581 469.643 684.581 470.778V474.204C684.581 475.34 683.66 476.26 682.525 476.26H672.931V468.722H682.525Z" fill="#270970"/>
  <path d="M594.125 502.984C594.125 504.12 595.046 505.04 596.181 505.04H599.608C600.743 505.04 601.663 504.12 601.663 502.984V493.391H594.125V502.984Z" fill="#270970"/>
  <path d="M608.516 502.985C608.516 504.121 609.437 505.041 610.572 505.041H613.998C615.134 505.041 616.054 504.121 616.054 502.985V493.391H608.516V502.985Z" fill="#270970"/>
  <path d="M622.907 502.985C622.907 504.121 623.827 505.041 624.962 505.041H628.389C629.524 505.041 630.445 504.121 630.445 502.985V493.391H622.907V502.985Z" fill="#270970"/>
  <path d="M637.297 502.985C637.297 504.121 638.218 505.041 639.353 505.041H642.779C643.915 505.041 644.835 504.121 644.835 502.985V493.391H637.297V502.985Z" fill="#270970"/>
  <path d="M651.688 502.985C651.688 504.121 652.608 505.041 653.744 505.041H657.17C658.305 505.041 659.226 504.121 659.226 502.985V493.391H651.688V502.985Z" fill="#270970"/>
</g>
<g class="e6">
  <path d="M655.499 384.059L655.499 239.798L755.134 151.984" stroke="#4C29A0" stroke-width="2.0558"/>
</g>
<g class="e7">
  <path d="M562.228 475.989L347.772 475.988L217.229 575.624" stroke="#4C29A0" stroke-width="2.0558"/>
</g>
</svg>
